Numix-Light/16/status/indicator-keyboard-Ph-6.svg

<?xml version="1.0" encoding="UTF-8" standalone="no"?>
<svg
   xmlns:dc="http://purl.org/dc/elements/1.1/"
   xmlns:cc="http://creativecommons.org/ns#"
   xmlns:rdf="http://www.w3.org/1999/02/22-rdf-syntax-ns#"
   xmlns:svg="http://www.w3.org/2000/svg"
   xmlns="http://www.w3.org/2000/svg"
   xmlns:sodipodi="http://sodipodi.sourceforge.net/DTD/sodipodi-0.dtd"
   xmlns:inkscape="http://www.inkscape.org/namespaces/inkscape"
   viewBox="0 0 16 16"
   id="svg2"
   version="1.1"
   inkscape:version="0.91 r13725"
   sodipodi:docname="indicator-keyboard-Ph-6.svg">
  <metadata
     id="metadata14">
    <rdf:RDF>
      <cc:Work
         rdf:about="">
        <dc:format>image/svg+xml</dc:format>
        <dc:type
           rdf:resource="http://purl.org/dc/dcmitype/StillImage" />
      </cc:Work>
    </rdf:RDF>
  </metadata>
  <defs
     id="defs12" />
  <sodipodi:namedview
     pagecolor="#ffffff"
     bordercolor="#666666"
     borderopacity="1"
     objecttolerance="10"
     gridtolerance="10"
     guidetolerance="10"
     inkscape:pageopacity="0"
     inkscape:pageshadow="2"
     inkscape:window-width="640"
     inkscape:window-height="480"
     id="namedview10"
     showgrid="false"
     inkscape:zoom="14.75"
     inkscape:cx="8"
     inkscape:cy="8"
     inkscape:window-x="65"
     inkscape:window-y="24"
     inkscape:window-maximized="0"
     inkscape:current-layer="svg2" />
  <path
     style="fill:#353535;fill-opacity:1"
     d="M 1.5996094 0 C 0.71320937 2.9605947e-16 0 0.71320937 0 1.5996094 L 0 14.400391 C 2.9605947e-16 15.286791 0.71320937 16 1.5996094 16 L 14.400391 16 C 15.286791 16 16 15.286791 16 14.400391 L 16 1.5996094 C 16 0.71320937 15.286791 0 14.400391 0 L 1.5996094 0 z M 7.5859375 4.1113281 L 7.5859375 6.578125 C 7.7779375 6.506125 7.9719219 6.4520156 8.1699219 6.4160156 C 8.3679219 6.3740156 8.5656719 6.3535156 8.7636719 6.3535156 C 9.1236719 6.3535156 9.4240625 6.4038594 9.6640625 6.5058594 C 9.9040626 6.6078594 10.096234 6.7552656 10.240234 6.9472656 C 10.384234 7.1332656 10.483109 7.3570938 10.537109 7.6210938 C 10.597109 7.8850937 10.626953 8.1761406 10.626953 8.4941406 L 10.626953 11.095703 L 10.042969 11.095703 L 10.042969 8.6835938 C 10.042969 8.3535938 10.018703 8.0756562 9.9707031 7.8476562 C 9.9287031 7.6196563 9.8540938 7.4330625 9.7460938 7.2890625 C 9.6440937 7.1450625 9.5060313 7.0424219 9.3320312 6.9824219 C 9.1580313 6.9164219 8.9378281 6.8847656 8.6738281 6.8847656 C 8.5718281 6.8847656 8.4617969 6.8921562 8.3417969 6.9101562 C 8.2277969 6.9281563 8.1195781 6.9506094 8.0175781 6.9746094 C 7.9155781 6.9926094 7.8222812 7.0131094 7.7382812 7.0371094 C 7.6602812 7.0611094 7.6099375 7.0797969 7.5859375 7.0917969 L 7.5859375 11.095703 L 7 11.095703 L 7 4.2207031 L 7.5859375 4.1113281 z M 3.2851562 4.8046875 C 4.1671562 4.8046875 4.8238594 4.9725937 5.2558594 5.3085938 C 5.6878594 5.6445937 5.9042969 6.1222344 5.9042969 6.7402344 C 5.9042969 7.0942344 5.8408438 7.3964375 5.7148438 7.6484375 C 5.5888437 7.8944375 5.4097813 8.0959531 5.1757812 8.2519531 C 4.9417812 8.4019531 4.6525469 8.5139375 4.3105469 8.5859375 C 3.9745469 8.6519375 3.5939688 8.6835937 3.1679688 8.6835938 L 2.3222656 8.6835938 L 2.3222656 11.095703 L 1.7109375 11.095703 L 1.7109375 4.9765625 C 1.9269375 4.9165625 2.1787969 4.8736094 2.4667969 4.8496094 C 2.7607969 4.8196094 3.0331563 4.8046875 3.2851562 4.8046875 z M 3.3125 5.3359375 C 3.0845 5.3359375 2.8885625 5.3452813 2.7265625 5.3632812 C 2.5705625 5.3752812 2.4362656 5.3864375 2.3222656 5.3984375 L 2.3222656 8.1523438 L 3.0957031 8.1523438 C 3.4257031 8.1523438 3.7223281 8.1356094 3.9863281 8.0996094 C 4.2563281 8.0576094 4.485875 7.9848125 4.671875 7.8828125 C 4.863875 7.7748125 5.0093281 7.6274062 5.1113281 7.4414062 C 5.2133281 7.2554063 5.265625 7.0184687 5.265625 6.7304688 C 5.265625 6.4544688 5.20775 6.226875 5.09375 6.046875 C 4.98575 5.866875 4.8383437 5.7250469 4.6523438 5.6230469 C 4.4723438 5.5150469 4.26525 5.4404375 4.03125 5.3984375 C 3.79725 5.3564375 3.5585 5.3359375 3.3125 5.3359375 z M 14.021484 8.8242188 L 14.044922 9.1464844 C 13.807022 9.1620844 13.585612 9.1993125 13.382812 9.2578125 C 13.183913 9.3124125 13.007562 9.4005844 12.851562 9.5214844 C 12.695563 9.6384843 12.564284 9.7893625 12.458984 9.9765625 C 12.353684 10.163763 12.281187 10.394969 12.242188 10.667969 C 12.347488 10.613369 12.474847 10.566344 12.623047 10.527344 C 12.771247 10.484444 12.928003 10.462891 13.095703 10.462891 C 13.314103 10.462891 13.500244 10.498159 13.652344 10.568359 C 13.804444 10.634659 13.927884 10.722838 14.021484 10.835938 C 14.115084 10.949038 14.181709 11.080316 14.224609 11.228516 C 14.267509 11.376716 14.289062 11.533466 14.289062 11.697266 C 14.289062 11.849366 14.26555 12.000244 14.21875 12.152344 C 14.17195 12.304444 14.099447 12.443559 13.998047 12.568359 C 13.900547 12.689259 13.775147 12.789187 13.623047 12.867188 C 13.474847 12.945188 13.296544 12.984375 13.089844 12.984375 C 12.664744 12.984375 12.341441 12.835463 12.119141 12.539062 C 11.900741 12.238762 11.791016 11.821409 11.791016 11.287109 C 11.791016 10.495409 11.981075 9.8958281 12.359375 9.4863281 C 12.741575 9.0768281 13.296084 8.8554188 14.021484 8.8242188 z M 13.060547 10.794922 C 12.881147 10.794922 12.724391 10.816475 12.587891 10.859375 C 12.455291 10.898375 12.329891 10.9454 12.212891 11 C 12.205091 11.0663 12.201172 11.119203 12.201172 11.158203 L 12.201172 11.292969 C 12.201172 11.476269 12.212928 11.650653 12.236328 11.814453 C 12.263628 11.978253 12.310653 12.121294 12.376953 12.246094 C 12.447153 12.370894 12.539244 12.470822 12.652344 12.544922 C 12.765444 12.615122 12.908484 12.650391 13.083984 12.650391 C 13.228284 12.650391 13.351725 12.624919 13.453125 12.574219 C 13.554525 12.519619 13.636819 12.449081 13.699219 12.363281 C 13.761619 12.277481 13.806684 12.177553 13.833984 12.064453 C 13.865184 11.951353 13.880859 11.833784 13.880859 11.708984 C 13.880859 11.396984 13.810322 11.165778 13.669922 11.017578 C 13.533422 10.869378 13.329647 10.794922 13.060547 10.794922 z "
     id="path4" />
</svg>

<svg xmlns="http://www.w3.org/2000/svg" viewBox="0 0 16 16">
 <path d="m 1.6 0 c -0.886 0 -1.6 0.713 -1.6 1.6 l 0 12.801 c 0 0.886 0.713 1.6 1.6 1.6 l 12.801 0 c 0.886 0 1.6 -0.713 1.6 -1.6 l 0 -12.801 c 0 -0.886 -0.713 -1.6 -1.6 -1.6 l -12.801 0 z m 5.986 4.111 l 0 2.467 c 0.192 -0.072 0.386 -0.126 0.584 -0.162 c 0.198 -0.042 0.396 -0.063 0.594 -0.063 c 0.36 0 0.66 0.05 0.9 0.152 c 0.24 0.102 0.432 0.249 0.576 0.441 c 0.144 0.186 0.243 0.41 0.297 0.674 c 0.06 0.264 0.09 0.555 0.09 0.873 l 0 2.602 l -0.584 0 l 0 -2.412 c 0 -0.33 -0.024 -0.608 -0.072 -0.836 c -0.042 -0.228 -0.117 -0.415 -0.225 -0.559 c -0.102 -0.144 -0.24 -0.247 -0.414 -0.307 c -0.174 -0.066 -0.394 -0.098 -0.658 -0.098 c -0.102 0 -0.212 0.007 -0.332 0.025 c -0.114 0.018 -0.222 0.04 -0.324 0.064 c -0.102 0.018 -0.195 0.038 -0.279 0.063 c -0.078 0.024 -0.128 0.043 -0.152 0.055 l 0 4 l -0.586 0 l 0 -6.875 l 0.586 -0.109 z m -4.301 0.693 c 0.882 0 1.539 0.168 1.971 0.504 c 0.432 0.336 0.648 0.814 0.648 1.432 c 0 0.354 -0.063 0.656 -0.189 0.908 c -0.126 0.246 -0.305 0.448 -0.539 0.604 c -0.234 0.15 -0.523 0.262 -0.865 0.334 c -0.336 0.066 -0.717 0.098 -1.143 0.098 l -0.846 0 l 0 2.412 l -0.611 0 l 0 -6.119 c 0.216 -0.06 0.468 -0.103 0.756 -0.127 c 0.294 -0.03 0.566 -0.045 0.818 -0.045 z m 0.027 0.531 c -0.228 0 -0.424 0.009 -0.586 0.027 c -0.156 0.012 -0.29 0.023 -0.404 0.035 l 0 2.754 l 0.773 0 c 0.33 0 0.627 -0.017 0.891 -0.053 c 0.27 -0.042 0.5 -0.115 0.686 -0.217 c 0.192 -0.108 0.337 -0.255 0.439 -0.441 c 0.102 -0.186 0.154 -0.423 0.154 -0.711 c 0 -0.276 -0.058 -0.504 -0.172 -0.684 c -0.108 -0.18 -0.255 -0.322 -0.441 -0.424 c -0.18 -0.108 -0.387 -0.183 -0.621 -0.225 c -0.234 -0.042 -0.473 -0.063 -0.719 -0.063 z m 10.709 3.488 l 0.023 0.322 c -0.238 0.016 -0.459 0.053 -0.662 0.111 c -0.199 0.055 -0.375 0.143 -0.531 0.264 c -0.156 0.117 -0.287 0.268 -0.393 0.455 c -0.105 0.187 -0.178 0.418 -0.217 0.691 c 0.105 -0.055 0.233 -0.102 0.381 -0.141 c 0.148 -0.043 0.305 -0.064 0.473 -0.064 c 0.218 0 0.405 0.035 0.557 0.105 c 0.152 0.066 0.276 0.154 0.369 0.268 c 0.094 0.113 0.16 0.244 0.203 0.393 c 0.043 0.148 0.064 0.305 0.064 0.469 c 0 0.152 -0.024 0.303 -0.07 0.455 c -0.047 0.152 -0.119 0.291 -0.221 0.416 c -0.098 0.121 -0.223 0.221 -0.375 0.299 c -0.148 0.078 -0.327 0.117 -0.533 0.117 c -0.425 0 -0.748 -0.149 -0.971 -0.445 c -0.218 -0.3 -0.328 -0.718 -0.328 -1.252 c 0 -0.792 0.19 -1.391 0.568 -1.801 c 0.382 -0.409 0.937 -0.631 1.662 -0.662 z m -0.961 1.971 c -0.179 0 -0.336 0.022 -0.473 0.064 c -0.133 0.039 -0.258 0.086 -0.375 0.141 c -0.008 0.066 -0.012 0.119 -0.012 0.158 l 0 0.135 c 0 0.183 0.012 0.358 0.035 0.521 c 0.027 0.164 0.074 0.307 0.141 0.432 c 0.07 0.125 0.162 0.225 0.275 0.299 c 0.113 0.07 0.256 0.105 0.432 0.105 c 0.144 0 0.268 -0.025 0.369 -0.076 c 0.101 -0.055 0.184 -0.125 0.246 -0.211 c 0.062 -0.086 0.107 -0.186 0.135 -0.299 c 0.031 -0.113 0.047 -0.231 0.047 -0.355 c 0 -0.312 -0.071 -0.543 -0.211 -0.691 c -0.136 -0.148 -0.34 -0.223 -0.609 -0.223 z" style="fill:#353535;fill-opacity:1"/>
</svg>
